libs/icons/src/svg/credit-card.svg

<svg width="16" height="16" viewBox="0 0 16 16" fill="none" xmlns="http://www.w3.org/2000/svg">
<path fill-rule="evenodd" clip-rule="evenodd" d="M1.33333 3.33331C1.33333 2.96484 1.63152 2.66665 2 2.66665H14C14.3685 2.66665 14.6667 2.96484 14.6667 3.33331V3.99998H1.33333V3.33331ZM0 5.33331V3.99998V3.33331C0 2.22846 0.895144 1.33331 2 1.33331H14C15.1049 1.33331 16 2.22846 16 3.33331V3.99998V5.33331V6.66665V7.99998V12.6666C16 13.7715 15.1049 14.6666 14 14.6666H2C0.895144 14.6666 0 13.7715 0 12.6666V7.99998V6.66665V5.33331ZM1.33333 6.66665V5.33331H14.6667V6.66665H1.33333ZM1.33333 7.99998V12.6666C1.33333 13.0351 1.63152 13.3333 2 13.3333H14C14.3685 13.3333 14.6667 13.0351 14.6667 12.6666V7.99998H1.33333ZM2.66667 9.99998H7.33333V11.3333H2.66667V9.99998ZM13.3333 9.99998H11.3333V11.3333H13.3333V9.99998Z" fill="#202327"/>
</svg>

<svg xmlns="http://www.w3.org/2000/svg" viewBox="0 0 16 16" class="sageicon"><path fill-rule="evenodd" d="M1.333 3.333c0-.368.299-.666.667-.666h12c.368 0 .667.298.667.666V4H1.333v-.667ZM0 5.333v-2a2 2 0 0 1 2-2h12a2 2 0 0 1 2 2v9.334a2 2 0 0 1-2 2H2a2 2 0 0 1-2-2V5.333Zm1.333 1.334V5.333h13.334v1.334H1.333Zm0 1.333v4.667c0 .368.299.666.667.666h12a.666.666 0 0 0 .667-.666V8H1.333Zm1.334 2h4.666v1.333H2.667V10Zm10.666 0h-2v1.333h2V10Z"/></svg>
